!!!COM: Bach, Johann Sebastian
!!!CDT: 1685/3//-1750/7/28/
!!!OTL@@DE: Helft mir Gott's Guete preisen
!!!AGN: 4-Part Chorale; Chorale Prelude
!!!SCT: BH 088
!!!SCT: BWV 28
**harm	**root	**kern	**kern	**kern	**kern
!	!	!bass	!tenor	!alto	!soprno
*	*Iorgan	*Iorgan	*Iorgan	*Iorgan	*Iorgan
*	*	*clefF4	*clefF4	*clefG2	*clefG2
*M4/4	*M4/4	*M4/4	*M4/4	*M4/4	*M4/4
*met(c)	*met(c)	*met(c)	*met(c)	*met(c)	*met(c)
*MM60	*MM60	*MM60	*MM60	*MM60	*MM60
*k[]	*k[]	*k[]	*k[]	*k[]	*k[]
*a:	*a:	*a:	*a:	*a:	*a:
*>[A,A,B]	*>[A,A,B]	*>[A,A,B]	*>[A,A,B]	*>[A,A,B]	*>[A,A,B]
*>A	*>A	*>A	*>A	*>A	*>A
i	4AA	4AA	4c	4e	4a
=1	=1	=1	=1	=1	=1
i	4AA	4A	4c	4e	4a
Vb	4EE	4G#	4B	4e	4b
i	4AA	4A	4A	4e	4cc
Vb/-VII	4DD	4F#	4A	4d	4dd
=2	=2	=2	=2	=2	=2
I/-VII	4.GG	2Gn	8Gn	4d	4.b
.	.	.	8F#	.	.
.	.	.	8G	8g	.
viiob/-VII	8FF#	.	8A	8f#	8cc
I/-VII;	4GG;	4GG;	4B;	4g;	4dd;
Vb	4EE	4G#	4B	4e	4ee
=3	=3	=3	=3	=3	=3
i	4AA	8A	8A	4e	4cc
.	.	8Gn	8B	.	.
VI	4FF	8Fn	4c	4a	4a
.	.	8E	.	.	.
ii7b	4BB	4D	4f	4a	4b
V	4EE	4E	8e	4g#	4b
.	.	.	8d	.	.
=4	=4	=4	=4	=4	=4
i;	2.AA;	2.AA;	2.c;	2.e;	2.a;
=:|!	=:|!	=:|!	=:|!	=:|!	=:|!
*>B	*>B	*>B	*>B	*>B	*>B
i	4AA	4AA	4c	4a	4ee
=5	=5	=5	=5	=5	=5
viiob	4GG#	4BB	4d	8a	4dd
.	.	.	.	8g#	.
ib	4AA	4C	4e	4a	4cc
ii7b	8BB	8D	8f	8a	4b
V	8EE	8E	8e	8g#	.
ivb	4DD	4F	8e	8a	4a
.	.	.	8d	8A	.
=6	=6	=6	=6	=6	=6
V;	2.EE;	2.E;	2.G#;	2.e;	2.b;
V	4EE	4E	4e	4g#	4b
!!linebreak: 2
=7	=7	=7	=7	=7	=7
i	4AA	4A	4e	4a	4cc
Vb/III	4GG	4B	4d	4gn	4dd
III	4CC	8c	8c	4g	4ee
.	.	8B	8d	.	.
i	4AA	8A	4e	4a	4cc
.	.	8G	.	.	.
=8	=8	=8	=8	=8	=8
Vb/-VII	4DD	8F#	4A	4a	4.dd
.	.	8E	.	.	.
V/-VII	4DD	4D	4d	8g	.
.	.	.	.	8f#	8cc
I/-VII;	4GG;	4G;	4d;	4g;	4b;
V7d/III	4GG	4Fn	4d	4g	4b
=9	=9	=9	=9	=9	=9
IIIb	4CC	4E	4G	4g	4cc
iv	4DD	4D	8A	4fn	4dd
.	.	.	8B	.	.
III	4CC	4C	8c	4e	4ee
.	.	.	8d	.	.
i	4AA	8BB	4e	4a	4cc
.	.	8AA	.	.	.
=10	=10	=10	=10	=10	=10
Ib/-VII	4GG	8BB	4d	8a	4.dd
.	.	8C	.	8g	.
V/-VII	4DD	4D	4A	8f#	.
.	.	.	.	8e	8cc
I/-VII;	4GG;	4GG;	4B;	4d;	4b;
Vb	4EE	4G#	4B	4e	4ee
=11	=11	=11	=11	=11	=11
i	8AA	8A	8A	4e	8cc
vb	8EE	8Gn	8B	.	8b
VI	4FF	8F	4c	4a	4a
.	.	8E	.	.	.
ii7b	4BB	4D	4f	4a	4b
V	4EE	4E	8e	4g#	4b
.	.	.	8d	.	.
=12	=12	=12	=12	=12	=12
I;	2.AA;	2.AA;	2.c#;	2.e;	2.a;
==	==	==	==	==	==
*-	*-	*-	*-	*-	*-
!!!ONB: m.7, b.3: bass note 8C should perhaps be 8c
!!chor2scor: -l 2 -s 0.6 -o %b.pmx
!!!YEC: Copyright 1994, David Huron
!!!YEC: Changes/Additions 2001 by Craig Stuart Sapp
!!!YEN: United States of America
!!!SMA: 371 Bach Chorales, edited by Ludwig Erk, C.F. Peters
!!!PDT: 1850, 1865
!!!ONB: Harmony and Root analysis done manually
